X:164
T:Summerhawk
C:Will Patton
N:c 1997 King's Hill Music 
L:1/8
Q:1/4=160
M:3/4
K:C
z4 zE | AE AB c2 | FG Ac BA | B2 ^G3E | FE FA GF | E2 C3C | DC DE FD | E6 | z4 zE | 
AE AB c2 | FG Ac BA | B2 ^G3E | FE FA GF | E2 C3C | DC DE FD | E6 | z6 | FE FG A2 | 
z2 G^F GA | B4 c2 | A6 | A2 G2 F2 | E2 D2 C2 | E6 | z4 zE | FE FG A2 | z2 G^F GA | 
B4 c2 | A6 | A2 G2 F2 | E2 D2 C2 | z6 | z2 D^D =DC | A,6 | A,6 | z6 | z4 zE | 
AE AB c2 | FG Ac BA | B2 ^G3E | FE FA GF | E2 C3C | DC DE FD | E6 | z4 zE | AE AB c2 | 
FG Ac BA | B2 ^G3E | FE FA GF | E2 C3C | DC DE FD | E6 | z6 | FE FG A2 | z2 G^F GA | 
B4 c2 | A6 | A2 G2 F2 | E2 D2 C2 | E6 | z4 zE | FE FG A2 | z2 G^F GA | B4 c2 | 
A6 | A2 G2 F2 | E2 D2 C2 | z6 | z2 D^D =DC | A,6 | A,6 | z6 | A,6 | z6 | 


